assets/ri/ri-takeaway-fill.svg

<svg xmlns="http://www.w3.org/2000/svg" width="100%" height="100%" viewBox="0 0 24 24"><path d="M16 1C16.5522847 1 17 1.44771525 17 2L17 2.999 22 3 22 9 19.98 8.999 22.7467496 16.595251C22.9104689 17.0320314 23 17.5050658 23 17.9990113 23 20.2081503 21.209139 21.9990113 19 21.9990113 17.1367966 21.9990113 15.5711292 20.7251084 15.1264725 19.0007774L10.8737865 19.0007613C10.429479 20.7256022 8.86356525 22 7 22 5.05513052 22 3.43445123 20.6119768 3.07453347 18.7725019 2.43557576 18.4390399 2 17.770387 2 17L2 12 11 12C11 12.5128358 11.3860402 12.9355072 11.8833789 12.9932723L12 13 14 13C14.5128358 13 14.9355072 12.6139598 14.9932723 12.1166211L15 12 15 3 12 3 12 1 16 1ZM7 16C5.8954305 16 5 16.8954305 5 18 5 19.1045695 5.8954305 20 7 20 8.1045695 20 9 19.1045695 9 18 9 16.8954305 8.1045695 16 7 16ZM19 16C17.8954305 16 17 16.8954305 17 18 17 19.1045695 17.8954305 20 19 20 20.1045695 20 21 19.1045695 21 18 21 16.8954305 20.1045695 16 19 16ZM10 3C10.5522847 3 11 3.44771525 11 4L11 11 2 11 2 4C2 3.44771525 2.44771525 3 3 3L10 3ZM20 5L17 5 17 7 20 7 20 5ZM9 5L4 5 4 6 9 6 9 5Z" /></svg>

<svg xmlns="http://www.w3.org/2000/svg" width="100%" height="100%" viewBox="0 0 24 24"><path fill="none" d="M0 0h24v24H0z"/><path d="M16 1a1 1 0 011 1v.999L22 3v6l-2.02-.001 2.767 7.596a4 4 0 11-7.62 2.406h-4.253a4.002 4.002 0 01-7.8-.228A1.997 1.997 0 012 17v-5h9a1 1 0 00.883.993L12 13h2a1 1 0 00.993-.883L15 12V3h-3V1h4zM7 16a2 2 0 100 4 2 2 0 000-4zm12 0a2 2 0 100 4 2 2 0 000-4zM10 3a1 1 0 011 1v7H2V4a1 1 0 011-1h7zm10 2h-3v2h3V5zM9 5H4v1h5V5z"/></svg>
